Gruvbox-Plus-Dark/actions/16/transform-move.svg

<svg xmlns="http://www.w3.org/2000/svg" width="16" height="16" viewBox="0 0 16 16">
 <defs>
  <style id="current-color-scheme" type="text/css">
   .ColorScheme-Text { color:#ebdbb2; } .ColorScheme-Highlight { color:#458588; }
  </style>
 </defs>
 <path style="fill:currentColor" class="ColorScheme-Text" d="M 8 1 L 6 4 L 10 4 L 8 1 z M 4 6 L 1 8 L 4 10 L 4 6 z M 8 6 C 6.8954 6 6 6.8954 6 8 C 6 9.1046 6.8954 10 8 10 C 9.1046 10 10 9.1046 10 8 C 10 6.8954 9.1046 6 8 6 z M 12 6 L 12 10 L 15 8 L 12 6 z M 6 12 L 8 15 L 10 12 L 6 12 z"/>
</svg>

<svg width="16" height="16" version="1.1" viewBox="0 0 16 16" xmlns="http://www.w3.org/2000/svg">
  <defs>
    <style type="text/css">.ColorScheme-Text { color:#ebdbb2; } .ColorScheme-Highlight { color:#458588; }</style>
  </defs>
  <path class="ColorScheme-Text" d="m8 1-2 3h4zm-4 5-3 2 3 2zm4 0c-1.105 0-2 0.8954-2 2s0.8954 2 2 2 2-0.8954 2-2-0.8954-2-2-2zm4 0v4l3-2zm-6 6 2 3 2-3z" fill="currentColor"/>
</svg>
